!! 00010] TT[TB
!! Eigene Aufnahme
!!!OTL: Bai yin didi The rich young brother
!!!ARE: Neimeng
!! Ethnic Group: Menggu
!! MM, S. 605
!!!SCT: C0550
!!!YEM: Copyright 1995, estate of Helmut Schaffrath.
**kern
*ICvox
*Ivox
*M2/4
*k[]
*C:
{8g
4e
16d
16e
=1
8g
8a
8e
8d
=2
8a
4c
8d}
=3
{8e
16g
16a
8g
8e
=4
8d
8e
8a
8g
=5
2c}
=6
{8g
4e
16d
16e
=7
8c
16d
16e
8c
8A
=8
8c
4E
8G}
=9
{8A
8g
8.e
16d
=10
8c
8A
8.d
16c
=11
2G}
==
!!!AGN: NN
!! Saenger: Chao Lun Batou, der das Buch nur zum Nachschlagen
!!    benutzte und ansonsten auswendig sang. Da er aus dem Osten der
!!    Neimeng kommt, kennt er nicht so viele Lieder des Westens.
!!    Alle Lieder wurden mit erkaelteter, halber Stimme in meinem
!!    Zimmer gesungen. FOTO VORHANDEN (DIAS)  31.3.87  VARIANTE
!!!ONB: ESAC (Essen Associative Code) Database: CHINA
!!!AMT: simple duple
!!!AIN: vox
!!!EED: Helmut Schaffrath
!!!EEV: 1.0
*-
